Catalina-dark/actions/16/go-jump-definition.svg

<?xml version="1.0" encoding="UTF-8" standalone="no"?>
<svg
   xmlns:dc="http://purl.org/dc/elements/1.1/"
   xmlns:cc="http://creativecommons.org/ns#"
   xmlns:rdf="http://www.w3.org/1999/02/22-rdf-syntax-ns#"
   xmlns:svg="http://www.w3.org/2000/svg"
   xmlns="http://www.w3.org/2000/svg"
   xmlns:sodipodi="http://sodipodi.sourceforge.net/DTD/sodipodi-0.dtd"
   xmlns:inkscape="http://www.inkscape.org/namespaces/inkscape"
   width="16"
   height="16"
   viewBox="0 0 16 16"
   version="1.1"
   id="svg7"
   sodipodi:docname="go-jump-definition.svg"
   inkscape:version="0.92.4 5da689c313, 2019-01-14">
  <metadata
     id="metadata11">
    <rdf:RDF>
      <cc:Work
         rdf:about="">
        <dc:format>image/svg+xml</dc:format>
        <dc:type
           rdf:resource="http://purl.org/dc/dcmitype/StillImage" />
      </cc:Work>
    </rdf:RDF>
  </metadata>
  <sodipodi:namedview
     pagecolor="#ffffff"
     bordercolor="#666666"
     borderopacity="1"
     objecttolerance="10"
     gridtolerance="10"
     guidetolerance="10"
     inkscape:pageopacity="0"
     inkscape:pageshadow="2"
     inkscape:window-width="715"
     inkscape:window-height="480"
     id="namedview9"
     showgrid="false"
     inkscape:zoom="14.75"
     inkscape:cx="-0.54237288"
     inkscape:cy="8"
     inkscape:window-x="0"
     inkscape:window-y="26"
     inkscape:window-maximized="0"
     inkscape:current-layer="svg7" />
  <defs
     id="defs3">
    <style
       id="current-color-scheme"
       type="text/css">
   .ColorScheme-Text { color:#5c616c; } .ColorScheme-Highlight { color:#5294e2; }
  </style>
  </defs>
  <path
     style="fill:#f1f6f8;fill-opacity:0.8509804"
     class="ColorScheme-Text"
     d="M 5 2.0292969 L 1 3.0292969 L 6 4.0292969 L 10 3.0292969 L 5 2.0292969 z M 13 2.0292969 L 12 3.0292969 L 11 4.0292969 L 13 6.0292969 L 13 4.7441406 C 13.624413 5.6872656 14 6.8079219 14 8.0292969 C 14 11.353297 11.324 13.029297 8 13.029297 L 8 14.029297 C 11.878025 14.029297 15 11.907247 15 8.0292969 C 15 6.1201719 14.232325 4.4054344 13 3.1464844 L 13 2.0292969 z M 1 4.0292969 L 1 9.0292969 L 5 10.029297 L 5 5.0292969 L 1 4.0292969 z M 10 4.0292969 L 6 5.0292969 L 6 10.029297 L 10 9.0292969 L 10 4.0292969 z"
     id="path5" />
</svg>

<svg width="16" height="16" version="1.1" viewBox="0 0 16 16" xmlns="http://www.w3.org/2000/svg">
<defs>
<style id="current-color-scheme" type="text/css">.ColorScheme-Text { color:#5c616c; } .ColorScheme-Highlight { color:#5294e2; }</style>
</defs>
<path class="ColorScheme-Text" d="m5 2.0293-4 1 5 1 4-1-5-1zm8 0-2 2 2 2v-1.2852c0.62441 0.94312 1 2.0638 1 3.2852 0 3.324-2.676 5-6 5v1c3.878 0 7-2.122 7-6 0-1.9091-0.76768-3.6239-2-4.8828v-1.1172zm-12 2v5l4 1v-5l-4-1zm9 0-4 1v5l4-1v-5z" fill="#dedede" fill-opacity=".85098"/>
</svg>
